Newaita-dark/apps/scalable/emerald-theme-manager-icon.svg

<?xml version="1.0" encoding="UTF-8"?>
<svg xmlns="http://www.w3.org/2000/svg" xmlns:xlink="http://www.w3.org/1999/xlink" width="512pt" height="512pt" viewBox="0 0 512 512" version="1.1">
<defs>
<radialGradient id="radial0" gradientUnits="userSpaceOnUse" cx="450.908936" cy="189.579361" fx="450.908936" fy="189.579361" r="21.166656" gradientTransform="matrix(0.00000209005,-1.250119,-1.687663,-0.00000162462,570.000336,1018.113298)">
<stop offset="0" style="stop-color:rgb(0%,0%,0%);stop-opacity:0.313725;"/>
<stop offset="0.222222" style="stop-color:rgb(0%,0%,0%);stop-opacity:0.27451;"/>
<stop offset="1" style="stop-color:rgb(0%,0%,0%);stop-opacity:0;"/>
</radialGradient>
<radialGradient id="radial1" gradientUnits="userSpaceOnUse" cx="450.908936" cy="189.579361" fx="450.908936" fy="189.579361" r="21.166656" gradientTransform="matrix(-0.00000209005,1.250119,1.687663,0.00000162462,-61.95185,-119.851685)">
<stop offset="0" style="stop-color:rgb(0%,0%,0%);stop-opacity:0.313725;"/>
<stop offset="0.222222" style="stop-color:rgb(0%,0%,0%);stop-opacity:0.27451;"/>
<stop offset="1" style="stop-color:rgb(0%,0%,0%);stop-opacity:0;"/>
</radialGradient>
<radialGradient id="radial2" gradientUnits="userSpaceOnUse" cx="450.908936" cy="189.579361" fx="450.908936" fy="189.579361" r="21.166656" gradientTransform="matrix(-0.00000209005,-1.250119,1.687663,-0.00000162462,-61.95185,1018.113298)">
<stop offset="0" style="stop-color:rgb(0%,0%,0%);stop-opacity:0.313725;"/>
<stop offset="0.222222" style="stop-color:rgb(0%,0%,0%);stop-opacity:0.27451;"/>
<stop offset="1" style="stop-color:rgb(0%,0%,0%);stop-opacity:0;"/>
</radialGradient>
<radialGradient id="radial3" gradientUnits="userSpaceOnUse" cx="450.908936" cy="189.579361" fx="450.908936" fy="189.579361" r="21.166656" gradientTransform="matrix(0.00000209005,1.250119,-1.687663,0.00000162462,570.000313,-119.851692)">
<stop offset="0" style="stop-color:rgb(0%,0%,0%);stop-opacity:0.313725;"/>
<stop offset="0.222222" style="stop-color:rgb(0%,0%,0%);stop-opacity:0.27451;"/>
<stop offset="1" style="stop-color:rgb(0%,0%,0%);stop-opacity:0;"/>
</radialGradient>
<linearGradient id="linear0" gradientUnits="userSpaceOnUse" x1="148.166672" y1="0.666667" x2="148.166672" y2="233.5" gradientTransform="matrix(1.000095,0,0,1.000095,0,215.020511)">
<stop offset="0" style="stop-color:rgb(48.627451%,70.196078%,25.882353%);stop-opacity:1;"/>
<stop offset="1" style="stop-color:rgb(54.509804%,76.470588%,29.019608%);stop-opacity:1;"/>
</linearGradient>
<linearGradient id="linear1" gradientUnits="userSpaceOnUse" x1="1360" y1="815.118103" x2="1360" y2="1695.118164" gradientTransform="matrix(0.264609,0,0,0.264609,0,0)">
<stop offset="0" style="stop-color:rgb(48.627451%,70.196078%,25.882353%);stop-opacity:1;"/>
<stop offset="1" style="stop-color:rgb(54.509804%,76.470588%,29.019608%);stop-opacity:1;"/>
</linearGradient>
<linearGradient id="linear2" gradientUnits="userSpaceOnUse" x1="232.833328" y1="0.666668" x2="232.833328" y2="233.5" gradientTransform="matrix(1.000095,0,0,1.000095,0,215.020527)">
<stop offset="0" style="stop-color:rgb(61.176471%,80%,39.607843%);stop-opacity:1;"/>
<stop offset="1" style="stop-color:rgb(54.509804%,76.470588%,29.019608%);stop-opacity:1;"/>
</linearGradient>
<linearGradient id="linear3" gradientUnits="userSpaceOnUse" x1="960" y1="815.118103" x2="960" y2="175.118118" gradientTransform="matrix(0.264609,0,0,0.264609,0,0)">
<stop offset="0" style="stop-color:rgb(61.176471%,80%,39.607843%);stop-opacity:1;"/>
<stop offset="1" style="stop-color:rgb(54.509804%,76.470588%,29.019608%);stop-opacity:1;"/>
</linearGradient>
<linearGradient id="linear4" gradientUnits="userSpaceOnUse" x1="148.166672" y1="0.666667" x2="148.166672" y2="-168.666656" gradientTransform="matrix(1.000095,0,0,1.000095,0,215.020527)">
<stop offset="0" style="stop-color:rgb(68.235294%,83.529412%,50.588235%);stop-opacity:1;"/>
<stop offset="1" style="stop-color:rgb(77.254902%,88.235294%,64.705882%);stop-opacity:1;"/>
</linearGradient>
<linearGradient id="linear5" gradientUnits="userSpaceOnUse" x1="880" y1="175.118134" x2="880" y2="815.118103" gradientTransform="matrix(0.264609,0,0,0.264609,0,0)">
<stop offset="0" style="stop-color:rgb(61.176471%,80%,39.607843%);stop-opacity:1;"/>
<stop offset="1" style="stop-color:rgb(54.509804%,76.470588%,29.019608%);stop-opacity:1;"/>
</linearGradient>
</defs>
<g id="surface1">
<path style=" stroke:none;fill-rule:nonzero;fill:url(#radial0);" d="M 254.023438 449.128906 L 285.777344 449.128906 L 285.777344 427.960938 L 254.023438 427.960938 Z M 254.023438 449.128906 "/>
<path style=" stroke:none;fill-rule:nonzero;fill:url(#radial1);" d="M 254.023438 449.128906 L 222.269531 449.128906 L 222.269531 470.300781 L 254.023438 470.300781 Z M 254.023438 449.128906 "/>
<path style=" stroke:none;fill-rule:nonzero;fill:url(#radial2);" d="M 254.023438 449.128906 L 222.269531 449.128906 L 222.269531 427.960938 L 254.023438 427.960938 Z M 254.023438 449.128906 "/>
<path style=" stroke:none;fill-rule:nonzero;fill:url(#radial3);" d="M 254.023438 449.128906 L 285.777344 449.128906 L 285.777344 470.300781 L 254.023438 470.300781 Z M 254.023438 449.128906 "/>
<path style=" stroke:none;fill-rule:nonzero;fill:url(#linear0);" d="M 42.441406 215.6875 C 42.441406 220.753906 44.261719 225.796875 47.847656 229.78125 L 238.363281 441.46875 C 242.046875 445.558594 246.929688 447.847656 251.957031 448.339844 C 248.757812 447.71875 245.808594 445.652344 244.296875 442.128906 L 149.039062 219.855469 C 148.445312 218.476562 148.175781 217.0625 148.175781 215.6875 Z M 42.441406 215.6875 "/>
<path style=" stroke:none;fill-rule:nonzero;fill:url(#linear1);" d="M 359.875 215.6875 C 359.871094 217.0625 359.601562 218.476562 359.011719 219.855469 L 263.75 442.128906 C 262.242188 445.652344 259.292969 447.71875 256.09375 448.339844 C 261.121094 447.847656 266.003906 445.558594 269.683594 441.46875 L 460.203125 229.78125 C 463.785156 225.796875 465.605469 220.753906 465.605469 215.6875 Z M 359.875 215.6875 "/>
<path style=" stroke:none;fill-rule:nonzero;fill:url(#linear2);" d="M 148.175781 215.6875 C 148.175781 217.0625 148.445312 218.476562 149.039062 219.855469 L 244.296875 442.128906 C 247.964844 450.679688 260.085938 450.679688 263.75 442.128906 L 359.011719 219.855469 C 359.601562 218.476562 359.871094 217.0625 359.875 215.6875 Z M 148.175781 215.6875 "/>
<path style=" stroke:none;fill-rule:nonzero;fill:url(#linear3);" d="M 255.429688 46.4375 C 258.597656 46.863281 261.433594 48.699219 263.097656 51.476562 L 358.359375 210.242188 C 359.410156 211.996094 359.882812 213.863281 359.882812 215.6875 L 465.605469 215.6875 C 465.605469 211.410156 464.316406 207.121094 461.6875 203.441406 L 355.84375 55.261719 C 351.886719 49.726562 345.503906 46.4375 338.699219 46.4375 Z M 255.429688 46.4375 "/>
<path style=" stroke:none;fill-rule:nonzero;fill:url(#linear4);" d="M 169.246094 46.4375 C 162.441406 46.4375 156.054688 49.726562 152.101562 55.261719 L 46.257812 203.441406 C 43.628906 207.121094 42.335938 211.410156 42.335938 215.6875 L 148.167969 215.6875 C 148.164062 213.863281 148.640625 211.996094 149.691406 210.242188 L 244.949219 51.476562 C 246.621094 48.691406 249.464844 46.859375 252.628906 46.4375 Z M 169.246094 46.4375 "/>
<path style=" stroke:none;fill-rule:nonzero;fill:url(#linear5);" d="M 254.34375 46.34375 C 250.515625 46.226562 246.921875 48.191406 244.949219 51.476562 L 149.691406 210.242188 C 148.640625 211.996094 148.164062 213.863281 148.167969 215.6875 L 359.882812 215.6875 C 359.882812 213.863281 359.410156 211.996094 358.359375 210.242188 L 263.097656 51.476562 C 261.246094 48.386719 257.945312 46.453125 254.34375 46.34375 Z M 254.34375 46.34375 "/>
<path style=" stroke:none;fill-rule:nonzero;fill:rgb(100%,100%,100%);fill-opacity:0.392157;" d="M 253.910156 46.339844 C 253.480469 46.347656 253.050781 46.382812 252.625 46.4375 L 169.246094 46.4375 C 162.441406 46.4375 156.054688 49.726562 152.101562 55.261719 L 46.257812 203.441406 C 43.628906 207.121094 42.335938 211.410156 42.335938 215.6875 L 42.441406 215.6875 C 42.441406 216.503906 42.496094 217.316406 42.589844 218.128906 C 43.183594 215.417969 44.320312 212.789062 46.015625 210.417969 L 151.859375 62.238281 C 155.8125 56.699219 162.199219 53.414062 169.003906 53.414062 L 252.382812 53.414062 C 252.949219 53.339844 253.523438 53.300781 254.101562 53.320312 C 254.46875 53.332031 254.828125 53.367188 255.183594 53.414062 L 338.457031 53.414062 C 345.261719 53.414062 351.644531 56.699219 355.601562 62.238281 L 461.445312 210.417969 C 463.503906 213.300781 464.738281 216.558594 465.179688 219.890625 C 465.460938 218.507812 465.605469 217.097656 465.605469 215.6875 C 465.605469 211.410156 464.316406 207.121094 461.6875 203.441406 L 355.84375 55.261719 C 351.886719 49.726562 345.503906 46.4375 338.699219 46.4375 L 255.429688 46.4375 C 255.070312 46.390625 254.710938 46.355469 254.34375 46.34375 C 254.199219 46.339844 254.054688 46.339844 253.910156 46.339844 Z M 253.910156 46.339844 "/>
<path style=" stroke:none;fill-rule:nonzero;fill:rgb(0%,0%,0%);fill-opacity:0.235294;" d="M 42.71875 211.675781 C 42.464844 213 42.335938 214.34375 42.335938 215.6875 L 42.441406 215.6875 C 42.441406 220.753906 44.261719 225.796875 47.847656 229.78125 L 238.363281 441.46875 C 242.046875 445.558594 246.929688 447.847656 251.957031 448.339844 C 253.320312 448.601562 254.730469 448.601562 256.09375 448.339844 C 261.121094 447.847656 266.003906 445.554688 269.683594 441.46875 L 460.203125 229.78125 C 463.785156 225.796875 465.605469 220.753906 465.605469 215.6875 C 465.605469 214.453125 465.496094 213.214844 465.277344 211.992188 C 464.609375 215.761719 462.910156 219.378906 460.203125 222.386719 L 269.683594 434.074219 C 266.003906 438.160156 261.121094 440.449219 256.09375 440.941406 C 254.730469 441.207031 253.320312 441.207031 251.957031 440.945312 C 246.929688 440.453125 242.046875 438.160156 238.363281 434.074219 L 47.847656 222.386719 C 45.0625 219.292969 43.351562 215.5625 42.71875 211.675781 Z M 42.71875 211.675781 "/>
<path style=" stroke:none;fill-rule:nonzero;fill:rgb(12.941177%,12.941177%,12.941177%);fill-opacity:1;" d="M 169.246094 44.9375 C 161.957031 44.9375 155.117188 48.460938 150.878906 54.390625 L 45.035156 202.570312 C 42.222656 206.507812 40.835938 211.109375 40.835938 215.6875 C 40.835938 215.886719 40.878906 216.085938 40.957031 216.269531 C 41.089844 221.496094 43.03125 226.671875 46.730469 230.785156 L 237.25 442.472656 C 241.152344 446.804688 246.335938 449.257812 251.671875 449.8125 C 251.6875 449.8125 251.703125 449.816406 251.71875 449.820312 C 252.480469 449.964844 253.253906 450.039062 254.023438 450.039062 C 254.796875 450.039062 255.566406 449.964844 256.328125 449.820312 C 256.34375 449.816406 256.363281 449.8125 256.378906 449.8125 C 261.710938 449.257812 266.894531 446.804688 270.796875 442.472656 L 461.316406 230.785156 C 465.15625 226.519531 467.105469 221.113281 467.105469 215.6875 C 467.109375 211.109375 465.722656 206.507812 462.90625 202.570312 L 357.0625 54.390625 C 352.828125 48.460938 345.984375 44.9375 338.699219 44.9375 L 255.429688 44.9375 C 254.804688 44.9375 254.25 45.324219 254.027344 45.902344 C 253.804688 45.324219 253.25 44.9375 252.628906 44.9375 Z M 254.027344 46.96875 C 254.222656 47.484375 254.683594 47.851562 255.230469 47.925781 C 257.953125 48.289062 260.382812 49.867188 261.8125 52.25 L 357.070312 211.015625 C 357.691406 212.050781 358.070312 213.117188 358.253906 214.1875 L 149.796875 214.1875 C 149.976562 213.117188 150.355469 212.050781 150.976562 211.015625 L 246.234375 52.25 C 247.671875 49.855469 250.109375 48.285156 252.824219 47.925781 C 253.371094 47.851562 253.832031 47.484375 254.027344 46.96875 Z M 169.246094 47.9375 L 245.972656 47.9375 C 245.082031 48.734375 244.292969 49.652344 243.664062 50.707031 L 148.402344 209.472656 C 147.496094 210.980469 146.96875 212.585938 146.765625 214.1875 L 43.953125 214.1875 C 44.214844 210.722656 45.34375 207.300781 47.476562 204.3125 L 153.320312 56.132812 C 156.996094 50.988281 162.925781 47.9375 169.246094 47.9375 Z M 262.078125 47.9375 L 338.699219 47.9375 C 345.019531 47.9375 350.949219 50.988281 354.621094 56.132812 L 460.464844 204.3125 C 462.601562 207.300781 463.726562 210.722656 463.992188 214.1875 L 361.285156 214.1875 C 361.082031 212.585938 360.550781 210.980469 359.644531 209.472656 L 264.386719 50.707031 C 263.753906 49.65625 262.964844 48.734375 262.078125 47.9375 Z M 44.011719 217.1875 L 146.773438 217.1875 C 146.894531 218.128906 147.125 219.078125 147.484375 220.015625 C 147.539062 220.160156 147.597656 220.304688 147.660156 220.449219 L 242.917969 442.71875 C 243.085938 443.113281 243.273438 443.488281 243.472656 443.847656 C 242.035156 442.925781 240.6875 441.804688 239.480469 440.464844 L 48.960938 228.777344 C 45.984375 225.46875 44.332031 221.378906 44.011719 217.1875 Z M 149.824219 217.1875 L 358.222656 217.1875 C 358.105469 217.878906 357.929688 218.574219 357.632812 219.265625 L 262.371094 441.539062 C 262.371094 441.542969 262.367188 441.546875 262.363281 441.554688 C 262.292969 441.71875 262.21875 441.878906 262.140625 442.035156 C 262.125 442.070312 262.109375 442.101562 262.089844 442.136719 C 262.011719 442.292969 261.929688 442.445312 261.84375 442.59375 C 261.828125 442.621094 261.8125 442.648438 261.796875 442.675781 C 261.703125 442.828125 261.613281 442.976562 261.515625 443.125 C 261.515625 443.125 261.511719 443.125 261.511719 443.125 C 261.410156 443.277344 261.308594 443.421875 261.199219 443.5625 C 261.1875 443.578125 261.175781 443.59375 261.160156 443.613281 C 261.058594 443.746094 260.949219 443.878906 260.839844 444.003906 C 260.738281 444.121094 260.632812 444.230469 260.53125 444.339844 C 260.414062 444.460938 260.296875 444.574219 260.175781 444.683594 C 260.125 444.734375 260.074219 444.78125 260.019531 444.828125 C 259.910156 444.925781 259.800781 445.015625 259.6875 445.105469 C 259.65625 445.128906 259.625 445.152344 259.597656 445.175781 C 259.464844 445.277344 259.332031 445.375 259.199219 445.46875 C 259.195312 445.46875 259.195312 445.46875 259.195312 445.46875 C 258.167969 446.171875 257.011719 446.632812 255.808594 446.867188 C 255.789062 446.871094 255.769531 446.875 255.75 446.878906 C 255.179688 446.984375 254.605469 447.039062 254.023438 447.039062 C 253.453125 447.039062 252.878906 446.984375 252.320312 446.882812 C 252.292969 446.878906 252.265625 446.871094 252.242188 446.867188 C 251.035156 446.632812 249.882812 446.171875 248.855469 445.46875 C 248.851562 445.46875 248.851562 445.46875 248.847656 445.46875 C 248.714844 445.375 248.582031 445.277344 248.449219 445.175781 C 248.421875 445.15625 248.394531 445.132812 248.371094 445.113281 C 248.25 445.019531 248.132812 444.921875 248.019531 444.820312 C 247.984375 444.789062 247.949219 444.753906 247.914062 444.722656 C 247.773438 444.597656 247.640625 444.464844 247.507812 444.328125 C 247.40625 444.222656 247.308594 444.117188 247.210938 444.007812 C 247.101562 443.878906 246.992188 443.746094 246.882812 443.609375 C 246.875 443.59375 246.863281 443.578125 246.851562 443.566406 C 246.742188 443.421875 246.636719 443.277344 246.535156 443.125 C 246.53125 443.121094 246.53125 443.117188 246.527344 443.113281 C 246.433594 442.96875 246.339844 442.820312 246.25 442.667969 C 246.234375 442.644531 246.222656 442.621094 246.207031 442.597656 C 246.121094 442.449219 246.035156 442.292969 245.953125 442.132812 C 245.941406 442.101562 245.925781 442.074219 245.910156 442.042969 C 245.828125 441.878906 245.75 441.710938 245.675781 441.539062 L 150.417969 219.265625 C 150.121094 218.574219 149.941406 217.878906 149.824219 217.1875 Z M 361.273438 217.1875 L 464.039062 217.1875 C 463.71875 221.378906 462.0625 225.46875 459.085938 228.777344 L 268.570312 440.464844 C 267.363281 441.804688 266.015625 442.925781 264.578125 443.847656 C 264.777344 443.488281 264.960938 443.113281 265.128906 442.71875 L 360.390625 220.449219 C 360.453125 220.304688 360.507812 220.160156 360.5625 220.015625 C 360.921875 219.078125 361.15625 218.128906 361.273438 217.1875 Z M 361.273438 217.1875 "/>
</g>
</svg>

<svg xmlns="http://www.w3.org/2000/svg" width="512pt" height="512pt" viewBox="0 0 512 512"><defs><radialGradient id="a" gradientUnits="userSpaceOnUse" cx="450.909" cy="189.579" fx="450.909" fy="189.579" r="21.167" gradientTransform="matrix(0 -1.25012 -1.68766 0 570 1018.113)"><stop offset="0" stop-opacity=".314"/><stop offset=".222" stop-opacity=".275"/><stop offset="1" stop-opacity="0"/></radialGradient><radialGradient id="b" gradientUnits="userSpaceOnUse" cx="450.909" cy="189.579" fx="450.909" fy="189.579" r="21.167" gradientTransform="matrix(0 1.25012 1.68766 0 -61.952 -119.852)"><stop offset="0" stop-opacity=".314"/><stop offset=".222" stop-opacity=".275"/><stop offset="1" stop-opacity="0"/></radialGradient><radialGradient id="c" gradientUnits="userSpaceOnUse" cx="450.909" cy="189.579" fx="450.909" fy="189.579" r="21.167" gradientTransform="matrix(0 -1.25012 1.68766 0 -61.952 1018.113)"><stop offset="0" stop-opacity=".314"/><stop offset=".222" stop-opacity=".275"/><stop offset="1" stop-opacity="0"/></radialGradient><radialGradient id="d" gradientUnits="userSpaceOnUse" cx="450.909" cy="189.579" fx="450.909" fy="189.579" r="21.167" gradientTransform="matrix(0 1.25012 -1.68766 0 570 -119.852)"><stop offset="0" stop-opacity=".314"/><stop offset=".222" stop-opacity=".275"/><stop offset="1" stop-opacity="0"/></radialGradient><linearGradient id="e" gradientUnits="userSpaceOnUse" x1="148.167" y1=".667" x2="148.167" y2="233.5" gradientTransform="matrix(1.0001 0 0 1.0001 0 215.02)"><stop offset="0" stop-color="#7cb342"/><stop offset="1" stop-color="#8bc34a"/></linearGradient><linearGradient id="f" gradientUnits="userSpaceOnUse" x1="1360" y1="815.118" x2="1360" y2="1695.118" gradientTransform="rotate(.158) scale(.26461)"><stop offset="0" stop-color="#7cb342"/><stop offset="1" stop-color="#8bc34a"/></linearGradient><linearGradient id="g" gradientUnits="userSpaceOnUse" x1="232.833" y1=".667" x2="232.833" y2="233.5" gradientTransform="matrix(1.0001 0 0 1.0001 0 215.02)"><stop offset="0" stop-color="#9ccc65"/><stop offset="1" stop-color="#8bc34a"/></linearGradient><linearGradient id="h" gradientUnits="userSpaceOnUse" x1="960" y1="815.118" x2="960" y2="175.118" gradientTransform="rotate(.158) scale(.26461)"><stop offset="0" stop-color="#9ccc65"/><stop offset="1" stop-color="#8bc34a"/></linearGradient><linearGradient id="i" gradientUnits="userSpaceOnUse" x1="148.167" y1=".667" x2="148.167" y2="-168.667" gradientTransform="matrix(1.0001 0 0 1.0001 0 215.02)"><stop offset="0" stop-color="#aed581"/><stop offset="1" stop-color="#c5e1a5"/></linearGradient><linearGradient id="j" gradientUnits="userSpaceOnUse" x1="880" y1="175.118" x2="880" y2="815.118" gradientTransform="rotate(.158) scale(.26461)"><stop offset="0" stop-color="#9ccc65"/><stop offset="1" stop-color="#8bc34a"/></linearGradient></defs><path d="M254.023 449.129h31.754V427.96h-31.754zm0 0" fill="url(#a)"/><path d="M254.023 449.129H222.27V470.3h31.753zm0 0" fill="url(#b)"/><path d="M254.023 449.129H222.27V427.96h31.753zm0 0" fill="url(#c)"/><path d="M254.023 449.129h31.754V470.3h-31.754zm0 0" fill="url(#d)"/><path d="M42.441 215.688a21.03 21.03 0 0 0 5.407 14.093L238.363 441.47a20.968 20.968 0 0 0 13.594 6.87c-3.2-.62-6.148-2.687-7.66-6.21l-95.258-222.274a10.505 10.505 0 0 1-.863-4.167zm0 0" fill="url(#e)"/><path d="M359.875 215.688a10.643 10.643 0 0 1-.863 4.167L263.75 442.13c-1.508 3.523-4.457 5.59-7.656 6.21a20.95 20.95 0 0 0 13.59-6.87l190.52-211.688a21.044 21.044 0 0 0 5.401-14.094zm0 0" fill="url(#f)"/><path d="M148.176 215.688c0 1.375.27 2.789.863 4.167l95.258 222.274c3.668 8.55 15.789 8.55 19.453 0l95.262-222.274c.59-1.378.86-2.792.863-4.167zm0 0" fill="url(#g)"/><path d="M255.43 46.438a10.578 10.578 0 0 1 7.668 5.039l95.261 158.765a10.523 10.523 0 0 1 1.524 5.446h105.722c0-4.278-1.289-8.567-3.918-12.247L355.844 55.261a21.077 21.077 0 0 0-17.145-8.824zm0 0" fill="url(#h)"/><path d="M169.246 46.438a21.072 21.072 0 0 0-17.144 8.824L46.258 203.442a21.02 21.02 0 0 0-3.922 12.245h105.832c-.004-1.824.473-3.69 1.523-5.445L244.95 51.477a10.588 10.588 0 0 1 7.68-5.04zm0 0" fill="url(#i)"/><path d="M254.344 46.344a10.584 10.584 0 0 0-9.395 5.133l-95.258 158.765c-1.05 1.754-1.527 3.621-1.523 5.446h211.715c0-1.825-.473-3.692-1.524-5.446L263.098 51.477a10.58 10.58 0 0 0-8.754-5.133zm0 0" fill="url(#j)"/><path d="M253.91 46.34c-.43.008-.86.043-1.285.097h-83.379a21.072 21.072 0 0 0-17.144 8.825L46.258 203.442a21.02 21.02 0 0 0-3.922 12.245h.105c0 .817.055 1.63.149 2.442.594-2.711 1.73-5.34 3.426-7.711l105.843-148.18a21.061 21.061 0 0 1 17.145-8.824h83.379c.566-.074 1.14-.113 1.719-.094.367.012.726.047 1.082.094h83.273a21.067 21.067 0 0 1 17.145 8.824l105.843 148.18a21.013 21.013 0 0 1 3.735 9.473c.28-1.383.425-2.793.425-4.203 0-4.278-1.289-8.567-3.918-12.247L355.844 55.261a21.077 21.077 0 0 0-17.145-8.824h-83.27a11.1 11.1 0 0 0-1.085-.093c-.145-.004-.29-.004-.434-.004zm0 0" fill="#fff" fill-opacity=".392"/><path d="M42.719 211.676a21.31 21.31 0 0 0-.383 4.012h.105a21.03 21.03 0 0 0 5.407 14.093L238.363 441.47a20.968 20.968 0 0 0 13.594 6.87c1.363.263 2.773.263 4.137 0a20.968 20.968 0 0 0 13.59-6.87l190.52-211.688a21.044 21.044 0 0 0 5.073-17.789 20.987 20.987 0 0 1-5.074 10.395l-190.52 211.687a20.963 20.963 0 0 1-13.59 6.867 10.916 10.916 0 0 1-4.136.004 20.986 20.986 0 0 1-13.594-6.87L47.848 222.386a21.01 21.01 0 0 1-5.13-10.711zm0 0" fill-opacity=".235"/><path d="M169.246 44.938a22.58 22.58 0 0 0-18.367 9.453L45.035 202.57a22.537 22.537 0 0 0-4.2 13.117c0 .199.044.398.122.582a22.53 22.53 0 0 0 5.773 14.515l190.52 211.688a22.476 22.476 0 0 0 14.422 7.34 12.38 12.38 0 0 0 2.352.227 12.348 12.348 0 0 0 2.355-.228 22.476 22.476 0 0 0 14.418-7.34l190.52-211.687a22.53 22.53 0 0 0 5.788-15.097 22.481 22.481 0 0 0-4.199-13.118L357.062 54.39a22.573 22.573 0 0 0-18.363-9.453h-83.27c-.624 0-1.179.387-1.402.965a1.502 1.502 0 0 0-1.398-.965zm84.781 2.03c.196.516.657.884 1.203.958a9.072 9.072 0 0 1 6.583 4.324l95.257 158.766a9.122 9.122 0 0 1 1.184 3.172H149.797a9.035 9.035 0 0 1 1.18-3.172L246.234 52.25a9.07 9.07 0 0 1 6.59-4.324 1.502 1.502 0 0 0 1.203-.957zm-84.78.97h76.726c-.891.796-1.68 1.714-2.309 2.769l-95.262 158.766a12.072 12.072 0 0 0-1.636 4.714H43.953c.262-3.464 1.39-6.886 3.524-9.875L153.32 56.132a19.57 19.57 0 0 1 15.926-8.194zm92.831 0H338.7c6.32 0 12.25 3.05 15.922 8.195l105.844 148.18c2.137 2.988 3.262 6.41 3.527 9.875H361.285a12.08 12.08 0 0 0-1.64-4.715L264.387 50.707a12.184 12.184 0 0 0-2.309-2.77zM44.012 217.188h102.761a12.257 12.257 0 0 0 .887 3.261l95.258 222.27c.168.394.355.77.555 1.129a19.592 19.592 0 0 1-3.993-3.383L48.96 228.777a19.498 19.498 0 0 1-4.948-11.59zm105.812 0h208.399a9.028 9.028 0 0 1-.59 2.078L262.37 441.539c0 .004-.004.008-.008.016a9.013 9.013 0 0 1-.273.582 8.489 8.489 0 0 1-.293.539c-.094.152-.184.3-.281.449h-.004a7.32 7.32 0 0 1-.313.438l-.039.05c-.101.133-.21.266-.32.39-.102.118-.207.227-.309.337a7.319 7.319 0 0 1-.355.344 7.342 7.342 0 0 1-.578.492c-.133.101-.266.199-.399.293h-.004a9.038 9.038 0 0 1-3.386 1.398l-.059.012c-.57.105-1.145.16-1.727.16-.57 0-1.144-.055-1.703-.156-.027-.004-.054-.012-.078-.016a9.011 9.011 0 0 1-3.387-1.398h-.007a12.953 12.953 0 0 1-.399-.293c-.027-.02-.054-.043-.078-.063a6.346 6.346 0 0 1-.351-.293c-.036-.03-.07-.066-.106-.097a7.721 7.721 0 0 1-.406-.395c-.102-.105-.2-.21-.297-.32a17.88 17.88 0 0 1-.328-.399 9.022 9.022 0 0 1-.348-.484c-.004-.004-.004-.008-.008-.012a12.323 12.323 0 0 1-.277-.445c-.016-.023-.027-.047-.043-.07a10.338 10.338 0 0 1-.254-.465c-.012-.031-.027-.059-.043-.09a9.922 9.922 0 0 1-.234-.504l-95.258-222.273a9.042 9.042 0 0 1-.594-2.078zm211.45 0h102.765a19.503 19.503 0 0 1-4.953 11.59L268.57 440.464a19.592 19.592 0 0 1-3.992 3.383c.2-.36.383-.735.55-1.13l95.263-222.269c.062-.144.117-.289.171-.433.36-.938.594-1.887.711-2.828zm0 0" fill="#212121"/></svg>
